X: 6634
T: Cawdor Fair
R: barndance
M: 4/4
K: Dmajor
c|dcBA (Bd)F2|ABAF A2 Ac|dcBA (Bd) F2|E2 FA B2 Bc|
dcBA (Bd) F2|ABAF A2 Ac|dcBA (Bd) F2|E2 FA B2B||
A|(Ad)dc d2 dc|(Be)ed e2 de|fedc dcBA Bdce d2d2|
(Ad)dc d2 dc|(Be)ed e2 de|fedc dcBA|Bdce d2d||

